icons-dark/actions/22/document-decrypt.svg

<svg xmlns="http://www.w3.org/2000/svg" viewBox="0 0 22 22">
  <defs id="defs3051">
    <style type="text/css" id="current-color-scheme">
      .ColorScheme-Text {
        color:#f2f2f2
      }
      </style>
  </defs>
 <path 
    style="fill:currentColor;fill-opacity:1;stroke:none" 
   d="m11 3c-2.216 0-4 1.784-4 4v1h1v-.5c0-1.939 1.338-3.5 3-3.5 1.662 0 3 1.561 3 3.5v3.5h-5-1-1-1-1v1 7h1 10 1v-8h-1-1v-4c0-2.216-1.784-4-4-4m-5 9h10v6h-10v-6"
    class="ColorScheme-Text"
    />
</svg>

<?xml version="1.0" encoding="UTF-8" standalone="no"?>
<!-- Created with Inkscape (http://www.inkscape.org/) -->

<svg
   xmlns:dc="http://purl.org/dc/elements/1.1/"
   xmlns:cc="http://creativecommons.org/ns#"
   xmlns:rdf="http://www.w3.org/1999/02/22-rdf-syntax-ns#"
   xmlns:svg="http://www.w3.org/2000/svg"
   xmlns="http://www.w3.org/2000/svg"
   xmlns:sodipodi="http://sodipodi.sourceforge.net/DTD/sodipodi-0.dtd"
   xmlns:inkscape="http://www.inkscape.org/namespaces/inkscape"
   width="22"
   height="22"
   id="svg2"
   version="1.1"
   inkscape:version="0.48+devel r"
   sodipodi:docname="document-decrypt.svg">
  <defs
     id="defs4" />
  <sodipodi:namedview
     id="base"
     pagecolor="#ffffff"
     bordercolor="#666666"
     borderopacity="1.0"
     inkscape:pageopacity="0.0"
     inkscape:pageshadow="2"
     inkscape:zoom="16.231884"
     inkscape:cx="12.501311"
     inkscape:cy="10.993162"
     inkscape:document-units="px"
     inkscape:current-layer="layer1"
     showgrid="true"
     inkscape:window-width="1366"
     inkscape:window-height="668"
     inkscape:window-x="-2"
     inkscape:window-y="23"
     inkscape:window-maximized="1"
     inkscape:showpageshadow="false">
    <inkscape:grid
       type="xygrid"
       id="grid4114" />
    <sodipodi:guide
       position="2,20.000017"
       orientation="18,0"
       id="guide4120" />
    <sodipodi:guide
       position="2,2.0000174"
       orientation="0,18"
       id="guide4122" />
    <sodipodi:guide
       position="20,2.0000174"
       orientation="-18,0"
       id="guide4124" />
    <sodipodi:guide
       position="20,20.000017"
       orientation="0,-18"
       id="guide4126" />
    <sodipodi:guide
       position="3,19.000017"
       orientation="16,0"
       id="guide4128" />
    <sodipodi:guide
       position="3,3.0000174"
       orientation="0,16"
       id="guide4130" />
    <sodipodi:guide
       position="19,3.0000174"
       orientation="-16,0"
       id="guide4132" />
    <sodipodi:guide
       position="19,19.000017"
       orientation="0,-16"
       id="guide4134" />
  </sodipodi:namedview>
  <metadata
     id="metadata7">
    <rdf:RDF>
      <cc:Work
         rdf:about="">
        <dc:format>image/svg+xml</dc:format>
        <dc:type
           rdf:resource="http://purl.org/dc/dcmitype/StillImage" />
        <dc:title></dc:title>
      </cc:Work>
    </rdf:RDF>
  </metadata>
  <g
     inkscape:label="Capa 1"
     inkscape:groupmode="layer"
     id="layer1"
     transform="translate(0,-1030.3622)">
    <path
       style="opacity:1;fill:#f2f2f2;fill-opacity:1;stroke:none"
       d="M 11 3 C 8.784 3 7 4.784 7 7 L 7 8 L 8 8 L 8 7.5 C 8 5.561 9.338 4 11 4 C 12.662 4 14 5.561 14 7.5 L 14 11 L 9 11 L 8 11 L 7 11 L 6 11 L 5 11 L 5 12 L 5 19 L 6 19 L 16 19 L 17 19 L 17 11 L 16 11 L 15 11 L 15 7 C 15 4.784 13.216 3 11 3 z M 6 12 L 16 12 L 16 18 L 6 18 L 6 12 z "
       transform="translate(0,1030.3622)"
       id="rect4136" />
  </g>
</svg>
